assets/medical-grey/MedicalGrey12.svg

<svg xmlns="http://www.w3.org/2000/svg" id="icons" viewBox="0 0 64 64"><defs><style>.cls-1{fill:none;stroke:#000;stroke-linecap:round;stroke-linejoin:round;stroke-width:2px}</style></defs><g id="helicopter"><path d="M27.58 35.46v-6.93M24.08 31.99h7M6.43 35.51v1.29c0 2.54 2.41 4.59 5.38 4.59h18.48c3 0 5.37-2 5.37-4.59V22.59H21.57c-8.36 0-15.14 5.79-15.14 12.92zM35.66 30.27h13.8l4.27-8.88M22.62 22.59v-7.2M8.76 15.39H36.4M49 16.87l9.45 9.03M24.55 41.39v7.33M13.42 41.39v7.33M31.95 48.72H8.06L4.2 45.24" class="cls-1"/><path d="M19.37 22.73V29c0 2.66-1.86 4.81-4.15 4.81H6.57" class="cls-1"/></g></svg>

<svg xmlns="http://www.w3.org/2000/svg" id="icons" viewBox="0 0 64 64"><defs><style>.cls-1{fill:none;stroke:#000;stroke-linecap:round;stroke-linejoin:round;stroke-width:2px;}</style></defs><g id="helicopter"><path d="M27.58 35.46 27.58 28.53" class="cls-1"/><path d="M24.08 31.99 31.08 31.99" class="cls-1"/><path d="M6.43 35.51v1.29c0 2.54 2.41 4.59 5.38 4.59h18.48c3 0 5.37-2 5.37-4.59V22.59H21.57c-8.36 0-15.14 5.79-15.14 12.92z" class="cls-1"/><path d="M35.66 30.27 49.46 30.27 53.73 21.39" class="cls-1"/><path d="M22.62 22.59 22.62 15.39" class="cls-1"/><path d="M8.76 15.39 36.4 15.39" class="cls-1"/><path d="M49 16.87 58.45 25.9" class="cls-1"/><path d="M24.55 41.39 24.55 48.72" class="cls-1"/><path d="M13.42 41.39 13.42 48.72" class="cls-1"/><path d="M31.95 48.72 8.06 48.72 4.2 45.24" class="cls-1"/><path d="M19.37 22.73V29c0 2.66-1.86 4.81-4.15 4.81H6.57" class="cls-1"/></g></svg>
